icons/volume-mute-fill.svg

<svg xmlns="http://www.w3.org/2000/svg" width="24" height="24" fill="none"><g clip-path="url(#a)"><g><path fill="#121212" d="M5.889 16H2C1.73478 16 1.48043 15.8946 1.29289 15.7071C1.10536 15.5196 1 15.2652 1 15V9.00001C1 8.73479 1.10536 8.48044 1.29289 8.2929C1.48043 8.10536 1.73478 8.00001 2 8.00001H5.889L11.183 3.66801C11.2563 3.60795 11.3451 3.56994 11.4391 3.5584C11.5331 3.54686 11.6284 3.56226 11.714 3.6028C11.7996 3.64335 11.872 3.70738 11.9226 3.78744C11.9732 3.8675 12.0001 3.96029 12 4.05501V19.945C12.0001 20.0397 11.9732 20.1325 11.9226 20.2126C11.872 20.2926 11.7996 20.3567 11.714 20.3972C11.6284 20.4378 11.5331 20.4532 11.4391 20.4416C11.3451 20.4301 11.2563 20.3921 11.183 20.332L5.89 16H5.889ZM20.414 12L23.95 15.536L22.536 16.95L19 13.414L15.464 16.95L14.05 15.536L17.586 12L14.05 8.46401L15.464 7.05001L19 10.586L22.536 7.05001L23.95 8.46401L20.414 12Z"/></g></g><defs><clipPath id="a"><rect width="24" height="24" fill="white"/></clipPath></defs></svg>

<svg width="24" height="24" fill="none" xmlns="http://www.w3.org/2000/svg"><g clip-path="url(#a)"><path d="M5.889 16H2a1 1 0 0 1-1-1V9a1 1 0 0 1 1-1h3.889l5.294-4.332a.5.5 0 0 1 .817.387v15.89a.5.5 0 0 1-.817.387L5.89 16h-.001Zm14.525-4 3.536 3.536-1.414 1.414L19 13.414l-3.536 3.536-1.414-1.414L17.586 12 14.05 8.464l1.414-1.414L19 10.586l3.536-3.536 1.414 1.414L20.414 12Z" /></g><defs><clipPath id="a"><path fill="#fff" d="M0 0h24v24H0z"/></clipPath></defs></svg>
